logo/dovetail-icon.svg

<?xml version="1.0" encoding="UTF-8"?>
<svg width="256px" height="293px" viewBox="0 0 256 293" version="1.1" xmlns="http://www.w3.org/2000/svg" preserveAspectRatio="xMidYMid">
    <title>Dovetail</title>
    <g>
        <path d="M256,182.857143 L192,219.428571 L192,146.285714 L128,109.312 L192,73.1428571 L256,109.714286 L256,182.857143 Z M127.990857,109.714286 L63.9908571,146.285714 L63.9908571,73.1428571 L0,36.5714286 L64,0 L127.990857,36.5714286 L127.990857,109.714286 Z M127.990857,256 L63.9908571,292.571429 L64,219.428571 L0,182.857143 L63.9908571,146.285714 L127.990857,182.857143 L127.990857,256 Z" fill="#230078"></path>
    </g>
</svg>

<svg viewBox="0 0 256 293" xmlns="http://www.w3.org/2000/svg"><path fill="#230078" d="M256 182.85l-64 36.57v-73.15l-64-36.98 64-36.17 64 36.57v73.14ZM127.99 109.7l-64 36.57V73.12l-64-36.58 64-36.58 63.99 36.57v73.14Zm0 146.28l-64 36.57 0-73.15 -64-36.58 63.99-36.58 64 36.57v73.14Z"/></svg>
